X:0175
T:The Free Mason's March.
T:Free and Accepted Mason
M:6/8
L:1/8
Q:3/8=84
I: :: ::
Z:Jack Campin * www.campin.me.uk * 2009
K:G
D   |G>AB/c/ BAG|F>GA/B/ AFD   |G>AB/c/ BAG|Bdd d2:|
c/B/|cec     d2c|B>AG    d2c/B/|BcB     Adc|BGG G2:|
<end>
<start>
